assets/fonts/svg-files-for-custom-font/circle-with-cross.svg

<svg enable-background="new 0 0 20 20" viewBox="0 0 20 20" xmlns="http://www.w3.org/2000/svg"><path d="m10 1.6c-4.639 0-8.4 3.761-8.4 8.4s3.761 8.4 8.4 8.4 8.4-3.761 8.4-8.4-3.761-8.4-8.4-8.4zm4.789 11.461-1.729 1.729-3.06-3.061-3.061 3.06-1.729-1.729 3.062-3.06-3.061-3.061 1.729-1.728 3.06 3.06 3.061-3.061 1.729 1.729-3.062 3.061z"/></svg>

<?xml version="1.0" encoding="utf-8"?>
<!-- Generator: Adobe Illustrator 18.1.0, SVG Export Plug-In . SVG Version: 6.00 Build 0)  -->
<!DOCTYPE svg PUBLIC "-//W3C//DTD SVG 1.1//EN" "http://www.w3.org/Graphics/SVG/1.1/DTD/svg11.dtd">
<svg version="1.1" id="Circled_cross" xmlns="http://www.w3.org/2000/svg" xmlns:xlink="http://www.w3.org/1999/xlink" x="0px"
	 y="0px" viewBox="0 0 20 20" enable-background="new 0 0 20 20" xml:space="preserve">
<path d="M10,1.6c-4.639,0-8.4,3.761-8.4,8.4c0,4.639,3.761,8.4,8.4,8.4s8.4-3.761,8.4-8.4C18.4,5.361,14.639,1.6,10,1.6z
	 M14.789,13.061l-1.729,1.729L10,11.729l-3.061,3.06l-1.729-1.729L8.272,10L5.211,6.939L6.94,5.211L10,8.271l3.061-3.061
	l1.729,1.729L11.728,10L14.789,13.061z"/>
</svg>
